X: 324
T: Da dianhua
L: 1/16
M: 2/4
K: G
d2 d2 c2 B A [I:setbarnb 1]| 
G A B dA4 | 
d2 d2 c2 B A | 
G A B dA4 | 
d2 d B2< A2 B | 
G A B dA4 | 
A2 A B A2 B2 | 
D2> E2 G2 A2 | 
F2 D2D4 |]

@@@ Tune index: 9198
